packages/icons/src/spark-fill.svg

<svg width="24" height="24" viewBox="0 0 24 24" fill="none" xmlns="http://www.w3.org/2000/svg">
<path fill-rule="evenodd" clip-rule="evenodd" d="M21 11.4979V12.2658L15.2365 15.2152L12.4357 21H11.6224L8.82158 15.2152L3 12.2658V11.4979L8.82158 8.66667L11.6224 3H12.3195L15.4689 8.78481L21 11.4979Z" fill="black"/>
</svg>

<svg xmlns="http://www.w3.org/2000/svg" width="24" height="24" fill="none" viewBox="0 0 24 24">
  <path fill="#000" fill-rule="evenodd" d="M21 11.498v.768l-5.764 2.95-2.8 5.784h-.814l-2.8-5.785L3 12.265v-.767l5.822-2.831L11.622 3h.697l3.15 5.785L21 11.498Z" clip-rule="evenodd"/>
</svg>
